svgs/sharp-solid/trailer.svg

<svg xmlns="http://www.w3.org/2000/svg" viewBox="0 0 640 512"><!--! Font Awesome Pro 6.6.0 by @fontawesome - https://fontawesome.com License - https://fontawesome.com/license (Commercial License) Copyright 2024 Fonticons, Inc. --><path d="M544 32L0 32 0 384l65.1 0c7.8-54.3 54.4-96 110.9-96s103.1 41.7 110.9 96L480 384l32 0 32 0 64 0 32 0 0-64-32 0-64 0 0-288zM480 320l-32 0 0-16 0-192 0-16 32 0 0 16 0 192 0 16zM96 96l0 16 0 131.2c-11.4 5.9-22.2 12.9-32 21L64 112l0-16 32 0zm80 128c-5.4 0-10.7 .2-16 .7L160 112l0-16 32 0 0 16 0 112.7c-5.3-.5-10.6-.7-16-.7zm80 19.2L256 112l0-16 32 0 0 16 0 152.2c-9.8-8.1-20.6-15.2-32-21zM384 96l0 16 0 192 0 16-32 0 0-16 0-192 0-16 32 0zM176 480a80 80 0 1 0 0-160 80 80 0 1 0 0 160zm0-112a32 32 0 1 1 0 64 32 32 0 1 1 0-64z"/></svg>

<svg xmlns="http://www.w3.org/2000/svg" viewBox="0 0 640 512"><!--! Font Awesome Pro 6.4.2 by @fontawesome - https://fontawesome.com License - https://fontawesome.com/license (Commercial License) Copyright 2023 Fonticons, Inc. --><path d="M544 32H0V384H65.1c7.8-54.3 54.4-96 110.9-96s103.1 41.7 110.9 96H480h32 32 64 32V320H608 544V32zM480 320H448V304l0-192V96h32v16l0 192v16zM96 96v16l0 131.2c-11.4 5.9-22.2 12.9-32 21V112 96H96zm80 128c-5.4 0-10.7 .2-16 .7L160 112V96h32v16l0 112.7c-5.3-.5-10.6-.7-16-.7zm80 19.2L256 112V96h32v16l0 152.2c-9.8-8.1-20.6-15.2-32-21zM384 96v16l0 192v16H352V304l0-192V96h32zM176 480a80 80 0 1 0 0-160 80 80 0 1 0 0 160zm0-112a32 32 0 1 1 0 64 32 32 0 1 1 0-64z"/></svg>
